X:247
T:Quick Step. JBut.246, A
B:John Buttrey MS, poss. Lincolnshire, early 19thC
S:https://buttreymilitarysocialtunes1800.wordpress.com/
Z:Village Music Project, 2019, Anahata <anahata@treewind.co.uk>
M:6/8
Q:3/8=110
K:G
d/B/|G>Bd d>Bd|d>Bdg2d|ece efg|gfed2d/B/|
G>Bd d>Bd|dBd def|gfe dcB|BAAA2 :|
|:d/c/|BcB AGA|BGGG2A|BGg dBG|ABAA2d|
ece efg|gfed2e|dBG AGA|BGGG2 :|

